X:1
T:8
%%score { ( 1 2 ) | ( 3 4 ) }
L:1/8
M:2/4
K:G
V:1 treble 
V:2 treble 
V:3 bass 
V:4 bass 
V:1
 D2 G2 | F2 G2 | A2 d2 | B2[Q:1/4=72]"^Adagio" !fermata!G2 |[Q:1/4=120]"^Allegretto" B2 d2 | %5
 G2 F2 | E2 G2 | A4 | D2 G2 | F2 G2 | A2 d2 | B2 G2 | B2 d2 | G2 F2 | E2 G2 | A4 | A2 A2 | d2 c2 | %18
 B2 G2 | c2[Q:1/4=72]"^Adagio" !fermata!c2 |[Q:1/4=120]"^Allegretto" B2 A2 | ^G2 A2 | A2 ^G2 | A4 | %24
 d2 G2 | F2 G2 | E2 G2 | A2[Q:1/4=72]"^Adagio" !fermata!A2 |[Q:1/4=120]"^Allegretto" B2 G2 | %29
 c2 B2 | A2 A2 | G4 |] %32
V:2
 B,2 E2 | ^D2 E2 | F2 A2 | G2 G2 | G2 A2 | E2 ^D2 | E2 D2 | F4 | B,2 E2 | ^D2 E2 | F2 A2 | G2 G2 | %12
 G2 A2 | E2 ^D2 | E2 D2 | F4 | F2 E2 | G2 G2 | G2 G2 | G2 E2 | E2 C2 | E2 E2 | =F2 E2 | E4 | %24
 D2 D2 | D2 D2 | E2 D2 | F2 D2 | D2 E2 | E2 E2 | E2 D2 | B,4 |] %32
V:3
 G,2 B,2 | B,2 B,2 | D2 D2 | D2 B,2 | D2 A,2 | B,2 B,2 | G,2 B,2 | A,4 | G,2 B,2 | B,2 B,2 | %10
 D2 D2 | D2 B,2 | D2 A,2 | B,2 B,2 | G,2 B,2 | A,4 | A,2 E2 | D2 E2 | D2 B,2 | G,2 G,2 | ^G,2 A,2 | %21
 B,2 C2 | B,2 B,2 | C4 | A,2 B,2 | A,2 G,2 | G,2 B,2 | A,2 F,2 | G,2 B,2 | A,2 G,2 | G,2 F,2 | %31
 G,4 |] %32
V:4
 G,2 E,2 | B,,2 E,2 | D,2 F,2 | G,2 G,2 | G,2 F,2 | G,2 B,,2 | C,2 G,,2 | D,,4 | G,2 E,2 | %9
 B,,2 E,2 | D,2 F,2 | G,2 G,2 | G,2 F,2 | E,2 B,,2 | C,2 G,,2 | D,4 | D,2 C,2 | B,,2 C,2 | %18
 G,,2 G,2 | E,2 C,2 | E,2 =G,2 | E,2 C,2 | D,2 E,2 | A,4 | F,2 G,2 | D,2 B,,2 | C,2 G,,2 | %27
 D,2 D,2 | G,2 E,2 | A,,2 E,2 | C,2 D,2 | G,,4 |] %32

